X:887
T:Sadler's Wells
C:John Young, 1728
N:I'm assuming John Young meant B natural in bar 6 of the A-music.
M:6/8
R:Jig
L:1/8
S:Colin Hume's website,  colinhume.com  - chords can also be printed below the stave.
Q:3/8=100
K:Dm
P:A
|: ^c | "Dm"(dA)f "A7"(eA)g | "Dm"(fe)d "A7"^c2A | "Dm"(dA)c "Bb"(FB)A | "Gm"FG2 "A7"A2=B |\
"A7"(cA)e "E7"(e=B)c | "Dm"(d=B)A "E"^G2E | "Dm"(Af)d "A"(ea)A | "E7"(Ec)^G "A7(Am)"A2 :|
P:B
|: c | "F"(Ac)F "/"(fc)A | "Bb"(dB)A "Gm"G2A | "C7"(BG)E "/"(eg)c | "F"(BA)B "A7"A2^c |\
"Dm"(dA)f "A7"(eA)^f | "A7"(ge)^c "Dm"(de)f | "F"(AG)F "Gm"(BA)G | "A7"(Af)^c "Dm"d2 :|

